X:2
T:Ascending Stepwise Bass
M:4/4
L:1/4
K:C
V:1
"C"E2 G2 | "Dm7"F2 A2 | "Em7"G2 B2 | "F"A2 c2 | "G"B2 d2 | "Am7"c2 e2 | "Bb"_B2 d2 | "G7/B"G2 B2 |]
V:2 [K:C bass]
C,2 C,2 | D,,2 D,,2 | E,,2 E,,2 | F,,2 F,,2 | G,,2 G,,2 | A,,2 A,,2 | _B,,2 B,,2 | B,,2 B,,2 |]

3. 반음계적 하행 진행
